Sources/FrostedUI/Resources/Icons.xcassets/shieldCheckmark20.imageset/shield-checkmark-20.svg

<svg width="20" height="20" viewBox="0 0 20 20" fill="none" xmlns="http://www.w3.org/2000/svg" data-fui-icon="true">
  <path
    d="M9.23535 1.75586C9.73145 1.59051 10.2685 1.59051 10.7646 1.75586L15.9727 3.49219C16.9592 3.82112 17.6248 4.74418 17.625 5.78418V9.92676C17.625 12.2495 16.6187 13.9642 15.2041 15.3066C13.8176 16.6223 12.0074 17.6094 10.3564 18.5C10.1342 18.6199 9.86581 18.6199 9.64355 18.5C7.99262 17.6094 6.18245 16.6223 4.7959 15.3066C3.38127 13.9642 2.375 12.2495 2.375 9.92676V5.78418C2.37519 4.74421 3.04075 3.82113 4.02734 3.49219L9.23535 1.75586ZM10.29 3.17871C10.1018 3.11597 9.89819 3.11597 9.70996 3.17871L4.50195 4.91504C4.12778 5.03977 3.87519 5.3898 3.875 5.78418V9.92676C3.875 11.7474 4.63978 13.0903 5.8291 14.2188C6.9602 15.292 8.44605 16.1413 10 16.9844C11.554 16.1413 13.0398 15.292 14.1709 14.2188C15.3602 13.0903 16.125 11.7474 16.125 9.92676V5.78418C16.1248 5.38981 15.8722 5.03977 15.498 4.91504L10.29 3.17871ZM11.7617 7.38672C12.0546 7.09383 12.5294 7.09383 12.8223 7.38672C13.1148 7.67964 13.115 8.15448 12.8223 8.44727L9.69727 11.5723C9.40448 11.865 8.92964 11.8648 8.63672 11.5723L7.17773 10.1133C6.88517 9.82037 6.88496 9.34552 7.17773 9.05273C7.47052 8.75995 7.94536 8.76016 8.23828 9.05273L9.16699 9.98145L11.7617 7.38672Z"
    fill="currentColor"
  />
</svg>

<svg xmlns="http://www.w3.org/2000/svg" width="20" height="20" fill="none" data-fui-icon="true" viewBox="0 0 20 20"><path fill="currentColor" d="M9.235 1.756a2.42 2.42 0 0 1 1.53 0l5.208 1.736a2.42 2.42 0 0 1 1.652 2.292v4.143c0 2.323-1.006 4.037-2.42 5.38-1.387 1.315-3.198 2.302-4.849 3.193a.75.75 0 0 1-.712 0c-1.651-.89-3.462-1.878-4.848-3.193-1.415-1.343-2.421-3.058-2.421-5.38V5.784c0-1.04.666-1.963 1.652-2.292zm1.055 1.423a.9.9 0 0 0-.58 0L4.502 4.915a.92.92 0 0 0-.627.87v4.142c0 1.82.765 3.163 1.954 4.292C6.96 15.292 8.446 16.14 10 16.984c1.554-.843 3.04-1.692 4.17-2.765 1.19-1.129 1.955-2.472 1.955-4.292V5.784a.92.92 0 0 0-.627-.869zm1.472 4.208a.75.75 0 1 1 1.06 1.06l-3.125 3.125a.75.75 0 0 1-1.06 0l-1.46-1.459a.75.75 0 0 1 1.061-1.06l.929.928z"/></svg>
